X:1
T:Kyrie
T:Kyrie
%%score [ 1 2 ] { ( 3 5 6 ) | 4 }
L:1/8
Q:1/4=120
M:3/4
K:G
V:1 treble nm="S"
V:2 treble nm="A"
V:3 treble nm="Piano" snm="Pno."
V:5 treble 
V:6 treble 
V:4 bass 
V:1
 B>A G2 c2 | c2 B2 z2 | B>A G2 (cB) | B2 A2 z2 | z2 B2 B2 | (c2 B2) A2 | G4 F2 | G6 | z6 | z6 | %10
w: Ky- ri- e e-|lei- son,|Ky- ri- e e- *|lei- son,|Ky- ri-|e _ e-|lei- *|son.|||
 z6 | z6!fine! || B2 B3 B | (BA) A4 | A6 | B6 | e6 | c4 A2 | (G3 A) F2 | E6 | z6 | z6 | z6 | %23
w: ||Chri- ste e-|lei- * son,|Chri-|ste,|Chri-|ste e-|lei- * *|son.||||
 z6!D.C.! |] %24
w: |
V:2
 G>F G2 A2 | A2 G2 z2 | G>F G2 (AG) | G2 F2 GG | =F4 F2 | E2 D2 C2 | D6 | D6 | z6 | z6 | z6 | z6 || %12
w: Ky- ri- e e-|lei- son,|Ky- ri- e e- *|lei- son, Ky- ri-|e e-|lei- son, e-|lei-|son.|||||
 G2 G3 G | (GF) F4 | E2 F2 E2 | ^D4 D2 | B2 B2 A2 | G2 G2 F2 | (E3 F) ^D2 | E6 | z6 | z6 | z6 | %23
w: Chri- ste e-|lei- * son,|Chri- ste e-|lei- son,|Chri- ste e-|lei- son, e-|lei- * *|son.||||
 z6 |] %24
w: |
V:3
 [GB]>[FA] G2 [Ac]2 | [Ac]2 [GB]2 z2 | [GB]>[FA] G2 [Ac][GB] | [GB]2 [FA]2 z2 | z2 [DGB]2 [DGB]2 | %5
 [EGc]2 [DGB]2 [CFA]2 | [DG]4 [DF]2 | [B,DG]6 | [GB]>[Ac] [Bd]2 G2 | [Ac]2 [GB]2 (3[ce][Bd][Ac] | %10
 [GB]3 [Ac] [FA]2 | [B,DG]6 || [GB]2 [GB]3 [GB] | [GB][FA] [FA]4 | A6 | [^DFB]6 | %16
 [GB]2 [GB]2 [FA]2 | c4 A2 | [EG]3 [FA] [^DF]2 | [EG]4 [Bg]2 | [Bf]2 B2 [Ge]2 | [Gd]2 G2 [Ac]2 | %22
 [GB]3 [Ac] [FA]2 | [DG]6 |] %24
V:4
 [G,D]4 [F,D]2 | [G,D]4 z2 | [G,D]4 [G,D]2 | [D,D]4 z2 | z2 G,,2 G,,2 | C,4 C,2 | [D,B,]4 [D,A,]2 | %7
 G,,6 | G,,4 B,,2 | F,,2 G,,2 C,2 | D,4 D,,2 | G,,6 || G,,4 G,,2 | D,4 D,2 | [C,A,]4 [C,A,]2 | %15
 [B,,F,]6 | E,,4 E,,2 | [A,,A,]4 [A,,A,]2 | [B,,G,]4 [B,,B,]2 | [E,B,]4 [E,B,]2 | [D,B,]4 [C,C]2 | %21
 B,,4 C,2 | D,6 | [G,B,]6 |] %24
V:5
 x6 | x6 | x6 | x6 | x6 | x6 | x6 | x6 | D4 D2 | D4 E2 | D4 D2 | x6 || D4 D2 | D4 D2 | E2 F2 E2 | %15
 x6 | E4 B,2 | G2 G2 F2 | B,4 B,2 | B,4 z2 | x6 | D4 E2 | D4 D2 | x6 |] %24
V:6
 x6 | x6 | x6 | x6 | x6 | x6 | x6 | x6 | x6 | x6 | x6 | x6 || x6 | x6 | x6 | x6 | x6 | E4 C2 | x6 | %19
 x6 | x6 | x6 | x6 | x6 |] %24

